X: 41
T: Shambuy
%R: jig
B: "The Hibernian Muse" p.25 #2
F: http://imslp.org/wiki/The_Hibernian_Muse_%28Various%29
Z: 2015 John Chambers <jc:trillian.mit.edu>
P: No. XLI.
M: 6/8
L: 1/8
K: G
% - - - - - - - - - - - - - - - - - - - - - - - - - - - - -
V: 1
|:\
G2d dBd | (e/f/g)B TA2G | G2d dBd | e3 g3 |\
G2d dBd | (e/f/g)B TA2G | (g/a/b)g (f/g/a)f | e3 g3 :|
|:\
(g/a/b)g (f/g/a)f | (e/f/g)B TA2G | (g/a/b)g (f/g/a)f | e3 g3 |\
(g/a/b)g (f/g/a)f | (e/f/g)B TA2G | G2d dBd | e3 g3 :|
% - - - - - - - - - - - - - - - - - - - - - - - - - - - - -
V: 2 clef=bass middle=d
|:\
G3 g3 | G3 g3 | G3 g3 | G3 g3 |\
G3 g3 | G3 g3 | G3 g3 | G3 g3 :|
|:\
G3 g3 | G3 g3 | G3 g3 | G3 g3 |\
G3 g3 | G3 g3 | G3 g3 | G3 g3 :|

%%sep 2 1 500
%%sep 1 1 500

